packages/core/src/svgs/asm.svg

<svg width="24" height="24" viewBox="0 0 24 24" fill="none" xmlns="http://www.w3.org/2000/svg">
<g clip-path="url(#clip0_31_6118)">
<path d="M0 0H24V24H0V0Z" fill="#0086FF"/>
<path d="M11.82 5.22847C11.9632 5.28218 12.094 5.36433 12.2045 5.46999C12.315 5.57564 12.403 5.7026 12.463 5.84319C12.5231 5.98379 12.5541 6.1351 12.5541 6.28799C12.554 6.44088 12.523 6.59218 12.4629 6.73276L10.6415 11.1428H15.2915C15.7758 11.1428 16.2258 11.5542 16.41 11.9828L18.3386 16.4099C18.3981 16.5502 18.4285 16.7012 18.4282 16.8536C18.4279 17.006 18.3968 17.1568 18.3367 17.2968C18.2767 17.4369 18.189 17.5635 18.0788 17.6688C17.9687 17.7741 17.8384 17.8562 17.6958 17.9099C17.4058 18.0292 17.0809 18.0315 16.7893 17.9164C16.4977 17.8014 16.2619 17.5779 16.1315 17.2928L14.4943 13.2856H9.64291L7.87291 17.2928C7.61576 17.8799 6.91719 18.1542 6.30862 17.9099C6.166 17.8562 6.0357 17.7741 5.92556 17.6688C5.81542 17.5635 5.72769 17.4369 5.66765 17.2968C5.60761 17.1568 5.5765 17.006 5.57617 16.8536C5.57585 16.7012 5.60632 16.5502 5.66576 16.4099L10.2643 5.8499C10.5172 5.26276 11.2158 4.98847 11.8243 5.23276L11.82 5.22847Z" fill="white"/>
<path d="M13.9285 10.7144C14.7569 10.7144 15.4285 10.0428 15.4285 9.21436C15.4285 8.38593 14.7569 7.71436 13.9285 7.71436C13.1 7.71436 12.4285 8.38593 12.4285 9.21436C12.4285 10.0428 13.1 10.7144 13.9285 10.7144Z" fill="#FFC301"/>
</g>
<defs>
<clipPath id="clip0_31_6118">
<rect width="24" height="24" fill="white"/>
</clipPath>
</defs>
</svg>

<svg xmlns="http://www.w3.org/2000/svg" width="24" height="24" fill="none" viewBox="0 0 24 24"><g clip-path="url(#a)"><path fill="#0086FF" d="M0 0h24v24H0z"/><path fill="#fff" d="M11.82 5.228a1.13 1.13 0 0 1 .643 1.505l-1.821 4.41h4.65c.484 0 .934.411 1.118.84l1.929 4.427a1.13 1.13 0 0 1-.643 1.5 1.213 1.213 0 0 1-1.565-.617l-1.637-4.007H9.643l-1.77 4.007c-.257.587-.956.861-1.564.617a1.13 1.13 0 0 1-.643-1.5l4.598-10.56c.253-.587.952-.862 1.56-.617z"/><path fill="#FFC301" d="M13.929 10.714a1.5 1.5 0 1 0 0-3 1.5 1.5 0 0 0 0 3"/></g><defs><clipPath id="a"><path fill="#fff" d="M0 0h24v24H0z"/></clipPath></defs></svg>
